svg/color/bal.svg

<svg width="32" height="32" viewBox="0 0 32 32" xmlns="http://www.w3.org/2000/svg"><g fill="none"><circle fill="#1E1E1E" cx="16" cy="16" r="16"/><g fill="#FFF"><path d="M16.092 23.196C10.518 23.196 6 21.586 6 19.428c0-1.126 1.23-2.14 3.2-2.856 1.538.987 4.117 1.493 7.042 1.493 2.856 0 5.38-.617 6.93-1.562 1.859.707 3.013 1.694 3.013 2.782 0 2.161-4.518 3.911-10.093 3.911z"/><path d="M16.152 17.58c-4.226 0-7.652-1.325-7.652-2.96 0-.906 1.056-1.718 2.712-2.259 1.182.617 2.953 1.011 4.94 1.011 1.987 0 3.758-.394 4.94-1.01 1.659.543 2.712 1.352 2.712 2.258.003 1.635-3.424 2.96-7.652 2.96z"/><path d="M16.124 12.88c-3.267 0-5.916-1.094-5.916-2.44 0-1.345 2.65-2.44 5.916-2.44 3.266 0 5.916 1.095 5.916 2.44 0 1.346-2.65 2.44-5.916 2.44z"/></g></g></svg>

<svg width="32" height="32" viewBox="0 0 32 32" fill="none" xmlns="http://www.w3.org/2000/svg">
<path d="M16 32C24.8366 32 32 24.8366 32 16C32 7.16344 24.8366 0 16 0C7.16344 0 0 7.16344 0 16C0 24.8366 7.16344 32 16 32Z" fill="white"/>
<path d="M16.092 23.196C10.518 23.196 6 21.586 6 19.428C6 18.302 7.23 17.288 9.2 16.572C10.738 17.559 13.317 18.065 16.242 18.065C19.098 18.065 21.622 17.448 23.172 16.503C25.031 17.21 26.185 18.197 26.185 19.285C26.185 21.446 21.667 23.196 16.092 23.196Z" fill="black"/>
<path d="M16.152 17.58C11.926 17.58 8.5 16.255 8.5 14.62C8.5 13.714 9.556 12.902 11.212 12.361C12.394 12.978 14.165 13.372 16.152 13.372C18.139 13.372 19.91 12.978 21.092 12.362C22.751 12.905 23.804 13.714 23.804 14.62C23.807 16.255 20.38 17.58 16.152 17.58Z" fill="black"/>
<path d="M16.124 12.88C12.857 12.88 10.208 11.786 10.208 10.44C10.208 9.095 12.858 8 16.124 8C19.39 8 22.04 9.095 22.04 10.44C22.04 11.786 19.39 12.88 16.124 12.88Z" fill="black"/>
</svg>
